X: 1
T: Shandon Bells
R: jig
M: 6/8
L: 1/8
K: Dmaj
AFD DFA|ded cBA|BGE E2G|B2A Bcd|
AFD DFA|ded cBA|Bcd ecA|d3 d2B:|
|:f2d dcd|f2a afd|cAA eAA|cAc efg|
f2d dcd|faa afd|Bcd ecA|d2d d3:||


Tune 1200	Setting 14488

